X: 20573
M: C
L: 1/8
K: G
d2b2 g2de | dGBG ce EF |\
d2b2 g2de | dGBG ce EF |\
dGBG cez2 | eA^cA dfz2 |\
gefd gbB^c | dfe^c d=cBA |\
agfe dg Ac | BGAF G2 |]


